assets/images/svg/gift.svg

<svg width="60" height="60" viewBox="0 0 60 60" fill="none" xmlns="http://www.w3.org/2000/svg">
<rect width="60" height="60" rx="8.49462" fill="#F58218" fill-opacity="0.1"/>
<mask id="mask0_455_5389" style="mask-type:alpha" maskUnits="userSpaceOnUse" x="0" y="0" width="60" height="60">
<rect width="60" height="60" rx="8.49462" fill="#5465FF"/>
</mask>
<g mask="url(#mask0_455_5389)">
<rect x="-10.4551" y="48.1328" width="62.9577" height="41.8664" rx="8.49462" transform="rotate(-18.538 -10.4551 48.1328)" fill="#FFEAD7"/>
<path d="M39.0349 27.9228L35.987 26.1541C38.9237 23.6512 35.9759 18.9792 32.4496 20.5699L31.4818 20.9815L31.3594 19.9136C31.2482 18.7122 30.6253 17.8556 29.8021 17.3551C27.9778 16.295 25.1968 17.0213 24.7518 19.6688L21.6928 17.9113C20.6249 17.2883 19.2677 17.6554 18.6559 18.7233L17.5435 20.6477C17.2321 21.1817 17.4212 21.8602 17.9551 22.1717L26.6206 27.1775L28.2892 24.2853L30.2137 25.3976L28.5451 28.2899L37.2106 33.2956C37.7446 33.5737 38.4342 33.418 38.7346 32.884L39.847 30.9596C40.4588 29.8917 40.1028 28.5346 39.0349 27.9228ZM28.3226 21.3374C27.3548 21.6155 26.5762 20.581 27.0656 19.7245C27.3548 19.1905 28.0556 19.0125 28.5896 19.3129C29.4461 19.8134 29.2793 21.1038 28.3226 21.3374ZM34.0959 24.6746C33.1393 24.9527 32.3606 23.9182 32.85 23.0616C33.1504 22.5277 33.8401 22.3497 34.3629 22.65C35.2194 23.1506 35.0526 24.441 34.0959 24.6746ZM37.7779 34.5526C38.234 34.5526 38.6678 34.3969 39.0349 34.1299V38.0233C39.0349 39.258 38.0449 40.2481 36.8101 40.2481H19.0119C18.4218 40.2481 17.856 40.0137 17.4387 39.5964C17.0215 39.1792 16.7871 38.6133 16.7871 38.0233V28.0118H25.8531L26.7986 28.568V38.0233H29.0234V29.8472L36.6655 34.2523C36.9993 34.4525 37.3663 34.5526 37.7779 34.5526Z" fill="#F58218"/>
<path d="M56.5192 7.94753L56.8684 6.92883C57.7931 7.66046 59.0184 6.49931 58.3321 5.53677L58.1513 5.27112L58.4641 5.171C58.8176 5.0663 59.0374 4.82869 59.1386 4.5522C59.348 3.94238 58.965 3.15191 58.145 3.17579L58.4901 2.15441C58.6134 1.7973 58.4228 1.41229 58.0663 1.29233L57.4234 1.07319C57.2448 1.01154 57.0527 1.10854 56.991 1.28709L56.0052 4.18199L56.9713 4.51036L56.7522 5.1533L55.7861 4.82493L54.8003 7.71982C54.7487 7.8964 54.8363 8.09388 55.0142 8.1522L55.6571 8.37134C56.0136 8.4913 56.3993 8.30399 56.5192 7.94753ZM57.8569 4.34527C57.7161 4.07169 57.9799 3.77682 58.2658 3.87266C58.443 3.92764 58.538 4.12714 58.4797 4.30504C58.3805 4.59153 57.9838 4.61816 57.8569 4.34527ZM57.1995 6.27409C57.0593 6.00384 57.3232 5.70898 57.609 5.80482C57.7869 5.86313 57.8812 6.0593 57.8222 6.23386C57.7231 6.52035 57.3264 6.54698 57.1995 6.27409ZM54.4572 7.96455C54.4843 8.10126 54.5568 8.22206 54.6586 8.31623L53.4915 8.5475C53.1214 8.62084 52.7658 8.38288 52.6925 8.01275L51.6353 2.67759C51.6002 2.50072 51.6369 2.31717 51.7372 2.16732C51.8374 2.01747 51.9931 1.91359 52.17 1.87855L55.171 1.28387L55.7096 4.00147L55.599 4.31793L52.7647 4.87957L52.8968 5.54647L55.3477 5.06082L54.4812 7.61326C54.441 7.72519 54.4328 7.84117 54.4572 7.96455Z" fill="#F58218" fill-opacity="0.2"/>
<path d="M10.19 11.8065L9.94381 10.4997C11.3829 10.7215 11.9907 8.72753 10.6669 8.11237L10.3107 7.93739L10.5856 7.63914C10.9014 7.31115 10.9925 6.92202 10.9325 6.56344C10.7856 5.78091 9.8924 5.16557 9.02638 5.6912L8.77425 4.38398C8.68891 3.92533 8.24944 3.62815 7.79353 3.71666L6.96951 3.87336C6.74018 3.91603 6.59296 4.13735 6.63563 4.36668L7.34215 8.07635L8.57977 7.83993L8.73647 8.66395L7.49885 8.90037L8.20537 12.61C8.25758 12.8311 8.47211 12.9898 8.69869 12.9439L9.52271 12.7872C9.97862 12.6987 10.2785 12.2624 10.19 11.8065ZM9.43011 7.12266C9.11205 6.91476 9.2156 6.43725 9.58097 6.36589C9.80481 6.31687 10.0284 6.47319 10.0743 6.69977C10.1425 7.06788 9.73271 7.33836 9.43011 7.12266ZM9.90021 9.59472C9.5849 9.39 9.68844 8.91249 10.0538 8.84113C10.2804 8.79528 10.5013 8.94842 10.5444 9.17182C10.6126 9.53993 10.2028 9.81041 9.90021 9.59472ZM7.98616 13.082C8.09861 13.2123 8.25006 13.2979 8.41683 13.3369L7.30462 14.2968C6.95188 14.6013 6.42497 14.5625 6.12053 14.2098L1.73231 9.12536C1.58683 8.9568 1.51427 8.73735 1.53059 8.5153C1.54691 8.29324 1.65078 8.08676 1.81933 7.94128L4.67933 5.4729L6.91458 8.06278L6.98881 8.47003L4.28771 10.8013L4.83624 11.4368L7.1719 9.42098L7.7977 12.6902C7.82278 12.8349 7.88468 12.9644 7.98616 13.082Z" fill="#F58218" fill-opacity="0.2"/>
<path d="M50.3025 50.5497L50.928 50.6983C50.5468 51.29 51.3076 51.951 51.8398 51.4875L51.9872 51.3647L52.0648 51.5448C52.1474 51.7488 52.3013 51.8656 52.4714 51.9098C52.8459 51.9989 53.2935 51.7257 53.2319 51.2398L53.8587 51.3858C54.078 51.4385 54.2958 51.3029 54.3464 51.0842L54.4395 50.6895C54.4658 50.5798 54.397 50.4712 54.2874 50.4449L52.5103 50.0266L52.371 50.6196L51.9763 50.5266L52.1156 49.9335L50.3384 49.5152C50.2305 49.4947 50.1183 49.5582 50.0939 49.6673L50.0009 50.062C49.9502 50.2807 50.0838 50.499 50.3025 50.5497ZM52.5203 51.1363C52.6747 51.0368 52.8652 51.1765 52.8248 51.3519C52.8023 51.4604 52.6893 51.5283 52.5802 51.504C52.4043 51.4616 52.3655 51.2274 52.5203 51.1363ZM51.3362 50.8572C51.4887 50.7582 51.6791 50.898 51.6387 51.0734C51.6144 51.1824 51.5033 51.2498 51.3961 51.2249C51.2202 51.1825 51.1814 50.9483 51.3362 50.8572ZM50.1732 49.3255C50.0935 49.3495 50.0259 49.3995 49.9759 49.4654L49.771 48.7854C49.706 48.5697 49.8268 48.3446 50.0425 48.2797L53.1515 47.343C53.2546 47.3119 53.3657 47.3231 53.4606 47.374C53.5554 47.425 53.6261 47.5115 53.6572 47.6145L54.1841 49.3633L52.6004 49.8404L52.406 49.793L51.9084 48.1414L51.5198 48.2585L51.9501 49.6867L50.3833 49.3194C50.3145 49.302 50.2451 49.3038 50.1732 49.3255Z" fill="#F58218" fill-opacity="0.2"/>
<path d="M9.23246 59.2695L10.6806 59.6135C9.79788 60.9834 11.5592 62.5137 12.7915 61.4408L13.1327 61.1564L13.3123 61.5734C13.5037 62.0457 13.8599 62.3161 14.2538 62.4183C15.1207 62.6247 16.1569 61.9921 16.0143 60.8673L17.4655 61.2053C17.9733 61.3271 18.4774 61.0133 18.5947 60.5069L18.8101 59.5932C18.871 59.3393 18.7118 59.0879 18.458 59.027L14.3437 58.0584L14.0213 59.4314L13.1075 59.216L13.4299 57.843L9.31561 56.8745C9.06579 56.8271 8.80585 56.9741 8.74945 57.2266L8.53406 58.1404C8.41675 58.6468 8.72605 59.1522 9.23246 59.2695ZM14.3669 60.6275C14.7244 60.3972 15.1654 60.7207 15.0718 61.1267C15.0199 61.3779 14.7582 61.5352 14.5056 61.4788C14.0983 61.3807 14.0085 60.8386 14.3669 60.6275ZM11.6256 59.9814C11.9786 59.7524 12.4195 60.0758 12.3259 60.4819C12.2695 60.7344 12.0123 60.8904 11.7643 60.8326C11.3569 60.7346 11.2672 60.1924 11.6256 59.9814ZM8.93303 56.4352C8.74859 56.4908 8.59212 56.6067 8.47619 56.7593L8.00183 55.1848C7.85139 54.6855 8.13114 54.1645 8.63049 54.0141L15.8282 51.8456C16.0668 51.7737 16.3242 51.7995 16.5438 51.9174C16.7634 52.0353 16.9271 52.2356 16.999 52.4742L18.2188 56.5229L14.5524 57.6275L14.1023 57.5178L12.9503 53.694L12.0506 53.9651L13.0467 57.2715L9.41948 56.4212C9.26013 56.3809 9.09948 56.3851 8.93303 56.4352Z" fill="#F58218" fill-opacity="0.2"/>
</g>
</svg>

<svg xmlns="http://www.w3.org/2000/svg" width="60" height="60" fill="none" viewBox="0 0 60 60"><rect width="60" height="60" fill="#f58218" fill-opacity=".1" rx="8.495"/><mask id="a" width="60" height="60" x="0" y="0" maskUnits="userSpaceOnUse" style="mask-type:alpha"><rect width="60" height="60" fill="#5465ff" rx="8.495"/></mask><g mask="url(#a)"><rect width="62.958" height="41.866" x="-10.455" y="48.133" fill="#ffead7" rx="8.495" transform="rotate(-18.538 -10.455 48.133)"/><path fill="#f58218" d="m39.035 27.923-3.048-1.769c2.937-2.503-.011-7.175-3.537-5.584l-.968.412-.123-1.068c-.11-1.202-.734-2.058-1.557-2.559-1.824-1.06-4.605-.334-5.05 2.314l-3.06-1.758a2.21 2.21 0 0 0-3.036.812l-1.112 1.925a1.114 1.114 0 0 0 .411 1.524l8.666 5.005 1.668-2.892 1.925 1.113-1.669 2.892 8.666 5.006c.534.278 1.223.122 1.524-.412l1.112-1.924a2.22 2.22 0 0 0-.812-3.037m-10.712-6.586c-.968.279-1.747-.756-1.257-1.613.289-.534.99-.712 1.524-.411.856.5.69 1.79-.267 2.024m5.773 3.338c-.957.278-1.735-.757-1.246-1.613.3-.534.99-.712 1.513-.412.856.5.69 1.791-.267 2.025m3.682 9.878c.456 0 .89-.156 1.257-.423v3.893c0 1.235-.99 2.225-2.225 2.225H19.012a2.225 2.225 0 0 1-2.225-2.225V28.012h9.066l.946.556v9.455h2.224v-8.176l7.643 4.405c.333.2.7.3 1.112.3"/><path fill="#f58218" fill-opacity=".2" d="m56.52 7.948.348-1.02c.925.732 2.15-.429 1.464-1.391l-.18-.266.312-.1a1 1 0 0 0 .675-.619c.209-.61-.174-1.4-.994-1.376l.345-1.022a.675.675 0 0 0-.424-.862l-.643-.219a.34.34 0 0 0-.432.214l-.986 2.895.966.328-.219.643-.966-.328L54.8 7.72c-.051.176.036.374.214.432l.643.22a.68.68 0 0 0 .862-.424m1.337-3.603a.336.336 0 0 1 .409-.472.34.34 0 0 1 .214.432c-.1.287-.496.313-.623.04m-.657 1.93c-.14-.271.123-.566.409-.47a.34.34 0 0 1 .213.429c-.099.286-.496.313-.623.04m-2.743 1.69c.027.136.1.257.202.351l-1.167.231a.677.677 0 0 1-.8-.534l-1.057-5.335a.68.68 0 0 1 .535-.8l3.001-.594L55.71 4l-.111.317-2.834.562.132.666 2.45-.485-.866 2.552a.65.65 0 0 0-.024.352M10.19 11.807 9.944 10.5c1.439.222 2.047-1.772.723-2.388l-.356-.175.275-.298c.315-.328.406-.717.346-1.076-.146-.782-1.04-1.397-1.906-.872l-.252-1.307a.834.834 0 0 0-.98-.667l-.824.156a.42.42 0 0 0-.334.494l.706 3.71L8.58 7.84l.156.824L7.5 8.9l.706 3.71c.053.221.267.38.494.334l.824-.157a.837.837 0 0 0 .667-.98m-.76-4.684a.415.415 0 0 1 .151-.757.42.42 0 0 1 .493.334c.069.368-.341.638-.644.423m.47 2.472c-.315-.205-.212-.683.154-.754a.42.42 0 0 1 .49.33c.069.369-.341.64-.644.424m-1.914 3.487c.113.13.264.216.43.255l-1.111.96a.837.837 0 0 1-1.184-.087L1.732 9.125a.84.84 0 0 1 .087-1.184l2.86-2.468 2.236 2.59.074.407-2.701 2.331.548.636L7.172 9.42l.626 3.27a.8.8 0 0 0 .188.391M50.303 50.55l.625.148c-.381.592.38 1.253.912.79l.147-.123.078.18c.082.204.236.32.406.365.375.089.823-.184.76-.67l.628.146a.403.403 0 0 0 .487-.302l.094-.395a.203.203 0 0 0-.153-.244l-1.777-.418-.139.593-.395-.093.14-.593-1.778-.419c-.108-.02-.22.043-.244.152l-.093.395a.405.405 0 0 0 .302.488m2.217.586a.2.2 0 0 1 .305.216.204.204 0 0 1-.245.152c-.176-.042-.215-.277-.06-.368m-1.184-.279c.153-.099.343.041.303.216a.203.203 0 0 1-.243.152c-.176-.043-.215-.277-.06-.368m-1.163-1.532a.4.4 0 0 0-.197.14l-.205-.68a.404.404 0 0 1 .271-.505l3.11-.937a.406.406 0 0 1 .505.271l.527 1.75-1.584.476-.194-.047-.498-1.652-.388.117.43 1.429-1.567-.368a.4.4 0 0 0-.21.006M9.232 59.27l1.449.343c-.883 1.37.878 2.9 2.11 1.828l.342-.285.18.417c.19.473.547.743.94.845.868.207 1.904-.426 1.761-1.55l1.451.337a.933.933 0 0 0 1.13-.698l.215-.914a.47.47 0 0 0-.352-.566l-4.114-.969-.323 1.373-.914-.215.323-1.373-4.114-.969c-.25-.047-.51.1-.567.353l-.215.913a.937.937 0 0 0 .698 1.13m5.135 1.357a.465.465 0 0 1 .705.5.47.47 0 0 1-.566.352c-.408-.098-.498-.64-.14-.852m-2.741-.646c.353-.229.793.095.7.5a.47.47 0 0 1-.562.352c-.407-.098-.497-.64-.138-.852m-2.693-3.546a.9.9 0 0 0-.457.324l-.474-1.574c-.15-.5.13-1.02.628-1.17l7.198-2.17a.94.94 0 0 1 1.171.63l1.22 4.048-3.667 1.104-.45-.11-1.152-3.823-.9.271.997 3.307-3.628-.85a.9.9 0 0 0-.486.013"/></g></svg>
